src/topics/icons/drone.svg

<svg height="218" preserveAspectRatio="xMidYMid" viewBox="0 0 256 218" width="256" xmlns="http://www.w3.org/2000/svg"><g fill="#252728"><path d="m128.224307.72249586c-96.1248769 0-127.82987632 83.84383744-127.82987632 114.49908214h77.92812302s11.0418694-39.9455283 49.9017533-39.9455283c38.859883 0 49.90574 39.9455283 49.90574 39.9455283h77.475522c0-30.6592323-31.257383-114.49908214-127.381262-114.49908214"/><path d="m227.043854 135.175898h-48.913807s-8.55057 39.946525-49.90574 39.946525c-41.3551709 0-49.9017533-39.946525-49.9017533-39.946525h-48.065429c0 10.250317 37.7273841 82.708348 98.4427123 82.708348 60.714331 0 98.344017-59.603764 98.344017-82.708348"/><circle cx="128" cy="126.076531" r="32.767839"/></g></svg>

<?xml version="1.0" encoding="UTF-8" standalone="no"?>
<svg width="256px" height="218px" viewBox="0 0 256 218" version="1.1" xmlns="http://www.w3.org/2000/svg" xmlns:xlink="http://www.w3.org/1999/xlink" preserveAspectRatio="xMidYMid">
	<g fill="#252728">
		<path d="M128.224307,0.72249586 C32.0994301,0.72249586 0.394430682,84.5663333 0.394430682,115.221578 L78.3225537,115.221578 C78.3225537,115.221578 89.3644231,75.2760497 128.224307,75.2760497 C167.08419,75.2760497 178.130047,115.221578 178.130047,115.221578 L255.605569,115.221578 C255.605569,84.5623457 224.348186,0.72249586 128.224307,0.72249586"></path>
		<path d="M227.043854,135.175898 L178.130047,135.175898 C178.130047,135.175898 169.579477,175.122423 128.224307,175.122423 C86.8691361,175.122423 78.3225537,135.175898 78.3225537,135.175898 L30.2571247,135.175898 C30.2571247,145.426215 67.9845088,217.884246 128.699837,217.884246 C189.414168,217.884246 227.043854,158.280482 227.043854,135.175898"></path>
		<circle cx="128" cy="126.076531" r="32.7678394"></circle>
	</g>
</svg>
